/* XPM */
static char * F_exit_xpm[] = {
"64 64 544 2",
"  	c #9BB94E",
". 	c #BFBA5B",
"+ 	c #79A863",
"@ 	c #679175",
"# 	c #161C2E",
"$ 	c #282632",
"% 	c #504340",
"& 	c #876E5A",
"* 	c #8A6B59",
"= 	c #8E745E",
"- 	c #806052",
"; 	c #6B584C",
"> 	c #A98A6D",
", 	c #C49577",
"' 	c #D7AD86",
") 	c #D3A280",
"! 	c #CDA17E",
"~ 	c #D1A883",
"{ 	c #CF9B7B",
"] 	c #D3A682",
"^ 	c #C79C7B",
"/ 	c #6E4647",
"( 	c #CBA283",
"_ 	c #D5A783",
": 	c #AB816B",
"< 	c #C59C80",
"[ 	c #A7866B",
"} 	c #272431",
"| 	c #4E373B",
"1 	c #79524B",
"2 	c #774C48",
"3 	c #4A2C36",
"4 	c #A7856B",
"5 	c #C69E81",
"6 	c #C78F76",
"7 	c #D8AE87",
"8 	c #C5957B",
"9 	c #874045",
"0 	c #914E53",
"a 	c #947565",
"b 	c #764A67",
"c 	c #754867",
"d 	c #734765",
"e 	c #834C4A",
"f 	c #BD7365",
"g 	c #C17B69",
"h 	c #C27F6C",
"i 	c #BF7667",
"j 	c #895B52",
"k 	c #734766",
"l 	c #774B67",
"m 	c #864045",
"n 	c #A04C4E",
"o 	c #704563",
"p 	c #714765",
"q 	c #724765",
"r 	c #744866",
"s 	c #6F4858",
"t 	c #845368",
"u 	c #67415B",
"v 	c #65405A",
"w 	c #835368",
"x 	c #694360",
"y 	c #744867",
"z 	c #B79575",
"A 	c #B29172",
"B 	c #6C574C",
"C 	c #80564E",
"D 	c #9F5853",
"E 	c #874146",
"F 	c #6F4664",
"G 	c #67435F",
"H 	c #684360",
"I 	c #704664",
"J 	c #6C4562",
"K 	c #6E4563",
"L 	c #6A4461",
"M 	c #744766",
"N 	c #9F5953",
"O 	c #684F47",
"P 	c #7B594F",
"Q 	c #D6A984",
"R 	c #D4A582",
"S 	c #C29275",
"T 	c #AC6C5E",
"U 	c #B46560",
"V 	c #6A3D52",
"W 	c #6D4563",
"X 	c #6D4461",
"Y 	c #5C3C57",
"Z 	c #67405D",
"` 	c #5E3D58",
" .	c #6C3E53",
"..	c #B46861",
"+.	c #AC6C5F",
"@.	c #A18368",
"#.	c #C69778",
"$.	c #7B6456",
"%.	c #885B52",
"&.	c #754A62",
"*.	c #63415D",
"=.	c #643F5B",
"-.	c #543A47",
";.	c #785845",
">.	c #936B4A",
",.	c #8D6748",
"'.	c #876346",
").	c #99704C",
"!.	c #9F744D",
"~.	c #66405C",
"{.	c #64415E",
"].	c #7A6356",
"^.	c #C19476",
"/.	c #D0A785",
"(.	c #BB9679",
"_.	c #413246",
":.	c #3F2F46",
"<.	c #4E354B",
"[.	c #4D3B37",
"}.	c #946C4A",
"|.	c #A77E52",
"1.	c #B28C5A",
"2.	c #A67E53",
"3.	c #B28858",
"4.	c #BD965F",
"5.	c #A47E53",
"6.	c #AC8556",
"7.	c #B28D5A",
"8.	c #9A704C",
"9.	c #6F523F",
"0.	c #4F354B",
"a.	c #66373D",
"b.	c #984E59",
"c.	c #B25455",
"d.	c #523448",
"e.	c #523B54",
"f.	c #5D3E5A",
"g.	c #4C3445",
"h.	c #926A4B",
"i.	c #C09860",
"j.	c #D0A969",
"k.	c #C79E63",
"l.	c #CEA768",
"m.	c #D6B16E",
"n.	c #D9B46F",
"o.	c #D7B16E",
"p.	c #D1AA6A",
"q.	c #D0A96A",
"r.	c #C9A165",
"s.	c #CCA467",
"t.	c #B88F5C",
"u.	c #9E734D",
"v.	c #64464A",
"w.	c #813F47",
"x.	c #984E5F",
"y.	c #B15457",
"z.	c #703E4E",
"A.	c #543C56",
"B.	c #3C2F3E",
"C.	c #815F48",
"D.	c #946D4A",
"E.	c #C7A266",
"F.	c #CBA366",
"G.	c #D4B06D",
"H.	c #C2A165",
"I.	c #CAA668",
"J.	c #D8B26F",
"K.	c #CDA768",
"L.	c #A57D52",
"M.	c #85614A",
"N.	c #753B46",
"O.	c #B35455",
"P.	c #8F4854",
"Q.	c #663B4C",
"R.	c #46334A",
"S.	c #5A4440",
"T.	c #9E7350",
"U.	c #BD925E",
"V.	c #D7B26E",
"W.	c #D9B570",
"X.	c #D8B36F",
"Y.	c #D9B470",
"Z.	c #DAB570",
"`.	c #BB915E",
" +	c #926B50",
".+	c #584340",
"++	c #44324A",
"@+	c #68404E",
"#+	c #904C56",
"$+	c #502B36",
"%+	c #984D4D",
"&+	c #AC665B",
"*+	c #74584F",
"=+	c #BC9676",
"-+	c #C49E7B",
";+	c #8E6C51",
">+	c #926B49",
",+	c #A88154",
"'+	c #C0A064",
")+	c #CDA769",
"!+	c #B4935E",
"~+	c #C89E64",
"{+	c #CBA567",
"]+	c #CDA567",
"^+	c #C9A567",
"/+	c #AA8456",
"(+	c #916A49",
"_+	c #765D4E",
":+	c #BE9A78",
"<+	c #A8876B",
"[+	c #74594F",
"}+	c #AD695D",
"|+	c #3F2533",
"1+	c #422834",
"2+	c #BD7C69",
"3+	c #6F4B47",
"4+	c #C9997A",
"5+	c #D7AC86",
"6+	c #CBA581",
"7+	c #785542",
"8+	c #CFA768",
"9+	c #C6A567",
"0+	c #D2AF6D",
"a+	c #D4AD6C",
"b+	c #C1955E",
"c+	c #6F4E3F",
"d+	c #CBA480",
"e+	c #D09D7D",
"f+	c #D4A481",
"g+	c #402734",
"h+	c #1B1D2E",
"i+	c #935C5D",
"j+	c #8F6055",
"k+	c #C17968",
"l+	c #9E6057",
"m+	c #B69273",
"n+	c #A06865",
"o+	c #8F4E4B",
"p+	c #A98657",
"q+	c #D5AF6D",
"r+	c #BC9C62",
"s+	c #91765F",
"t+	c #C09C7A",
"u+	c #B58E70",
"v+	c #B18C6F",
"w+	c #B89961",
"x+	c #AE8858",
"y+	c #8F4F4B",
"z+	c #9D5F61",
"A+	c #B58F71",
"B+	c #AA695D",
"C+	c #1D1D2F",
"D+	c #9E4C52",
"E+	c #814A4D",
"F+	c #C17767",
"G+	c #C37F6C",
"H+	c #A06A5C",
"I+	c #984C55",
"J+	c #874D4D",
"K+	c #B48556",
"L+	c #B1935E",
"M+	c #BA9073",
"N+	c #CF9A7B",
"O+	c #DAB189",
"P+	c #D2A280",
"Q+	c #BA8D5A",
"R+	c #944952",
"S+	c #A25E63",
"T+	c #BF7364",
"U+	c #C17A69",
"V+	c #C4816D",
"W+	c #AB5252",
"X+	c #975F55",
"Y+	c #916053",
"Z+	c #9D7050",
"`+	c #664D3D",
" @	c #BA9173",
".@	c #AE886D",
"+@	c #C09B7A",
"@@	c #B7896E",
"#@	c #674D3E",
"$@	c #A97857",
"%@	c #8D554D",
"&@	c #A35E63",
"*@	c #8B444C",
"=@	c #B05E5E",
"-@	c #C5836E",
";@	c #C4806C",
">@	c #BA7364",
",@	c #734344",
"'@	c #BF7F6B",
")@	c #C07767",
"!@	c #C4826E",
"~@	c #C17D6A",
"{@	c #B97062",
"]@	c #AE7463",
"^@	c #AD7362",
"/@	c #B97063",
"(@	c #7F524C",
"_@	c #C27A69",
":@	c #BE7063",
"<@	c #734343",
"[@	c #B86E61",
"}@	c #B25C5B",
"|@	c #6C3A4A",
"1@	c #974F60",
"2@	c #BF7A6A",
"3@	c #BD6D61",
"4@	c #A9645A",
"5@	c #BF7465",
"6@	c #A4695C",
"7@	c #C5826E",
"8@	c #A3665A",
"9@	c #C4826D",
"0@	c #C07D6C",
"a@	c #984F5F",
"b@	c #723B49",
"c@	c #4A2935",
"d@	c #AE5253",
"e@	c #B1615F",
"f@	c #BA645D",
"g@	c #C37E6B",
"h@	c #AC6F60",
"i@	c #BE6F63",
"j@	c #C07566",
"k@	c #AB6C5E",
"l@	c #BE7A68",
"m@	c #C17969",
"n@	c #62313A",
"o@	c #984E5B",
"p@	c #BE7465",
"q@	c #C27C6A",
"r@	c #C07465",
"s@	c #C5826D",
"t@	c #BE7466",
"u@	c #462A3A",
"v@	c #AD675C",
"w@	c #BD6C61",
"x@	c #BF7264",
"y@	c #C37D6A",
"z@	c #BD6E62",
"A@	c #BE7164",
"B@	c #3A283C",
"C@	c #3F2633",
"D@	c #A3685B",
"E@	c #BB675E",
"F@	c #C17867",
"G@	c #BC6A60",
"H@	c #BB685F",
"I@	c #35273A",
"J@	c #815450",
"K@	c #B57263",
"L@	c #C27B69",
"M@	c #835751",
"N@	c #67405C",
"O@	c #6E4462",
"P@	c #583851",
"Q@	c #704B4A",
"R@	c #A06B5C",
"S@	c #AD685C",
"T@	c #C3826D",
"U@	c #B17262",
"V@	c #5F3D58",
"W@	c #65425E",
"X@	c #633F5B",
"Y@	c #563751",
"Z@	c #483046",
"`@	c #402E40",
" #	c #463044",
".#	c #714665",
"+#	c #64425E",
"@#	c #62415D",
"##	c #814759",
"$#	c #9B4E5B",
"%#	c #8B4B60",
"&#	c #70445F",
"*#	c #6B4461",
"=#	c #6E4562",
"-#	c #8A4B60",
";#	c #66425F",
">#	c #934C5C",
",#	c #B25456",
"'#	c #B65555",
")#	c #B55555",
"!#	c #A1505C",
"~#	c #A8525A",
"{#	c #8C4B5F",
"]#	c #A9525A",
"^#	c #AF5358",
"/#	c #B35456",
"(#	c #2C2732",
"_#	c #AE5358",
":#	c #A6515B",
"<#	c #9A4F5E",
"[#	c #9D505D",
"}#	c #9B4D5A",
"|#	c #9D4C50",
"1#	c #8C4B56",
"2#	c #A3504F",
"3#	c #A24D4E",
"4#	c #9E4E59",
"5#	c #9A4F5F",
"6#	c #574240",
"7#	c #553A54",
"8#	c #6A4360",
"9#	c #9E505D",
"0#	c #884A5F",
"a#	c #824C46",
"b#	c #9F8255",
"c#	c #C7A366",
"d#	c #A1505D",
"e#	c #513E3D",
"f#	c #72554B",
"g#	c #5B3A54",
"h#	c #714664",
"i#	c #8D4C62",
"j#	c #B55455",
"k#	c #795445",
"l#	c #A48759",
"m#	c #816849",
"n#	c #916B4C",
"o#	c #816046",
"p#	c #1C1F2F",
"q#	c #926B4E",
"r#	c #654A45",
"s#	c #9C4F5E",
"t#	c #9B4B53",
"u#	c #7E6748",
"v#	c #876347",
"w#	c #B38255",
"x#	c #A97B54",
"y#	c #B28254",
"z#	c #A4515B",
"A#	c #2F2934",
"B#	c #856246",
"C#	c #916B4D",
"D#	c #62464F",
"E#	c #9F4B4E",
"F#	c #62493B",
"G#	c #AC7D54",
"H#	c #815E45",
"I#	c #3B2F34",
"J#	c #453042",
"K#	c #3B2F33",
"L#	c #362D37",
"M#	c #4F3D3E",
"N#	c #A48457",
"O#	c #BF9E64",
"P#	c #7A4542",
"Q#	c #99484B",
"R#	c #8C6647",
"S#	c #856145",
"T#	c #573751",
"U#	c #5A3953",
"V#	c #804A65",
"W#	c #563750",
"X#	c #745647",
"Y#	c #89674B",
"Z#	c #AE8C5A",
"`#	c #D1AE6C",
" $	c #64513E",
".$	c #966E4D",
"+$	c #654A40",
"@$	c #8A4B62",
"#$	c #974951",
"$$	c #B85F5A",
"%$	c #B75A57",
"&$	c #9C4D57",
"*$	c #382F37",
"=$	c #8A6650",
"-$	c #956D4D",
";$	c #9C7250",
">$	c #8B6E4B",
",$	c #987A51",
"'$	c #946C4D",
")$	c #7F5146",
"!$	c #AA535A",
"~$	c #AD6362",
"{$	c #C07666",
"]$	c #A8555C",
"^$	c #856A49",
"/$	c #99704E",
"($	c #816051",
"_$	c #9E7352",
":$	c #B5915D",
"<$	c #B7945E",
"[$	c #855245",
"}$	c #B35657",
"|$	c #B46C65",
"1$	c #AE6E68",
"2$	c #B35556",
"3$	c #AB8B5A",
"4$	c #A87B54",
"5$	c #7A5B4F",
"6$	c #AD845A",
"7$	c #AA7C54",
"8$	c #BA9560",
"9$	c #B99760",
"0$	c #B65655",
"a$	c #A9675C",
"b$	c #BD7567",
"c$	c #B65656",
"d$	c #705349",
"e$	c #9D7353",
"f$	c #B0885B",
"g$	c #A15757",
"h$	c #B9625C",
"i$	c #B35557",
"j$	c #2E2832",
"k$	c #6B4F44",
"l$	c #B08054",
"m$	c #9C7B52",
"n$	c #BE9D63",
"o$	c #845145",
"p$	c #A54F54",
"q$	c #BB665E",
"r$	c #BA635C",
"s$	c #A88256",
"t$	c #7B5B4C",
"u$	c #212130",
"v$	c #171C2E",
"w$	c #9B774F",
"x$	c #AD8858",
"y$	c #7F5D49",
"z$	c #8B5849",
"A$	c #A5515B",
"B$	c #9A494B",
"C$	c #B05457",
"D$	c #9A494C",
"E$	c #86634B",
"F$	c #B48F5B",
"G$	c #94734D",
"H$	c #6B4F3E",
"I$	c #322A33",
"J$	c #55403B",
"K$	c #6D503E",
"L$	c #21212F",
"M$	c #483636",
"N$	c #653646",
"O$	c #63323B",
"P$	c #844557",
"Q$	c #64323B",
"R$	c #23232F",
"S$	c #1C1E2E",
"                          .         . . . . . . . .       . . . . .     . . . .     . . . . . . . . . . . .       . .           ",
"+ +                                         . . .           . .             .         . . . . . . . . . . .     . . . . .       ",
"                                              . .           .                         . . . . . . . . . . . . . . . . . . . . . ",
"                                                            .                         . . . . .       . . . . . . . . .         ",
"        +                                                                                                                     + ",
"      + + +   + + + +             . . .                                                                                   + + + ",
"+ + + + + + + + + + + +       . . . . . .                     + + +                                                   + + + + + ",
"+ + + + + + + + + + + + . . . . . . . . . . . . . + + +     + + + + +                                               + + + + + + ",
"      + + + + + + + + + + + + . . . . . . . . . + + + + + + +     + + +             + + +                       + + + + + +     ",
"        + + +       + + + + + + + . . . + + + + +     + + +         + + +         + + + + +       + +       + + + + + + +       ",
"        + +                                                                     + + + + + + + + + + + +                         ",
"                                                  + +           + + + +         + + + + + + + + + + + + + + +                   ",
"                    @ @ @ @ @ @       @ @ @   + + + + +   + + + + + + + +     + + + +       + + + + +                           ",
"    # # #       . . . . @ @ @ @ @   @ @ @ @ @ + + $ % & * + + + + + + = - % $ + + +                                   @ @ @ @ @ ",
"# # # # # #   . . . . . . . @ @ @ @ @ @ . . @ ; > , ' ) ! + + + + + + ~ { ] ^ > ; +                                 @ @ @ @ @ @ ",
"# . . . . # . . . . . . . . . @ @ @ @ . . . . / ( _ : < [ } | 1 2 3 } 4 5 6 7 8 /                               @ @ @ . . . . @ ",
". . . . . . . . . . . . . . . . @ @ . . . . . 9 0 a b c d e f g h i j d k l a 0 9 + + + + + + +           @ @ @ @ . . . . . . . ",
". . . . . . . . . . + + + . . . . @ . .     . m n o p q r s t u v w s r x y o n m + + + + + + + + + + . @ @ . . . . . . . . . . ",
". . . . . . . . . + + + + + . . . . . z A B C D E q F G H I J K I L H H x y M E N C O A z . . . . . . . . . . . . . . . . + + + ",
"+ + . . + + + + + + + + + + + + +   P Q R S T U V W K L r X Y Z Z ` X r x I F  ...+.S R Q P . . . . .             . . + + + + + ",
"+ + + + + + + + + + + + + + + + + + @._ #.$.%.&.y *.=.-.;.>.,.'.).!.>.;.-.~.{.y &.%.].^._ @.                                  + ",
"      + + + + + + + + + + + + + + + z /.(._.:.J y <.[.}.|.1.2.3.4.5.6.7.8.9.0.y J :._.(./.z                                     ",
"              + + + + + + + + + + + a.b.c.d.e.f.g.h.i.j.k.l.m.n.o.p.q.r.s.t.u.v.f.e.d.c.b.a.        . . . .                     ",
"      + + + + + + +       + + + + + w.x.y.z.A.B.C.D.E.F.G.H.I.F.I.H.H.G.J.K.L.M.B.A.z.y.x.w.      . . . . . .                   ",
"+ + + + + + + + +           + + + + N.O.P.Q.R.S.T.U.j.V.W.X.n.Y.n.X.X.Z.J.q.`. +.+++@+#+O.N.. . . . . . . . . . . .         + + ",
"                            + + + + $+%+&+*+=+-+;+>+,+'+)+!+~+{+'+'+'+]+^+/+(+_+:+<+[+}+%+|+  . . . .       . . . . .           ",
"                                    1+2+3+4+Q 5+6+7+8+Z.Z.9+'+0+0+'+9+Z.a+b+c+d+e+f+4+3+2+g+      .           . . . . .         ",
"                                    h+i+j+k+l+m+n+o+p+q+r+s+t+u+v+t+s+w+q+x+y+z+A+B+k+j+i+h+                                    ",
"                                    C+D+E+F+G+H+I+J+K+8+L+M+N+) O+P+M+L+V.Q+J+I+H+G+F+E+D+C+                                    ",
"                                    + R+S+T+U+V+W+X+Y+Z+`+ @.@t++@@@ @#@$@%@X+W+V+U+T+&@R++ + + + +                             ",
"                              + + + + *@=@-@;@>@,@'@)@!@C ~@{@]@^@/@~@(@_@:@'@<@[@;@-@}@*@+ + + + + + + + + + + + + +           ",
"+ +                                   |@1@2@3@G+4@5@:@V+6@;@)@-@-@-@7@8@k+U+5@4@9@V+0@a@b@+ + + + + + + + + +                   ",
"                                      c@d@e@)@)@f@g@7@'@h@:@i@U+g@j@j@k@l@-@g@f@F+m@e@d@c@+ + + +                               ",
"          @ @ @ @ @         @ @ @ @ @   n@o@p@q@7@_@)@F+-@r@s@-@7@q@g@-@T+5@F+7@g@t@o@n@                                        ",
"      @ @ @ @ @ @ @ @     @ @ @ @ @ @ @   u@v@k+3@-@7@w@j@x@y@;@z@U+x@V+A@7@-@3@q@v@B@                                          ",
"    @ @ @ . . . @ @ @ @ @ @ @ . . . . @ @   C@D@E@F@j@G@x@g@7@k+k+7@g@x@G@T+F+H@D@C@        . . . . .                           ",
"@ @ @ @ . . . . . . @ @ @ @ . . . . . . . @ # I@J@K@q@-@s@i@j@x@x@j@3@L@-@q@K@M@I@# . . . . . . . . .           @ @ @ @ @     @ ",
"@ @ @ @ . . . . . . . . @ . . . . . . . . . # N@O@P@Q@R@^@S@T@T@T@T@U@]@R@Q@P@O@N@# . . . . . . . .           @ @ @ @ @ @ @ @ @ ",
". . @ @ @ . . . . . . . . . . . . . . . . . # V@W@c M X@Y@Z@`@ # #`@Z@Y@X@M c W@V@# . . . . . .       @ @   @ @ @ . . @ @ @ @ @ ",
". . . . @ . . . . . . . . . . . . . . . . . # ~.H .#k K c c +#c c @#K k K k .#H ~.#                 @ @ @ @ @ @ . . . . @ @ @ . ",
". . . . . . . . . . . . . . . . .         . # V@k ##$#%#&#*#*.L J H c =#-#$###k V@#                 @ @ . . @ @ . . . . . . . . ",
". . . . . . . . + + + + . . . .             # Y ;#>#,#'#)#!#~#{#~#]#!#!#^#/#>#;#Y #         . . @ @ @ . . . . . . . . . . . . . ",
"        . . . + + + + + +     .             (#V@M _#:#<#[#}#|#1#2#3#4#5#<#/#_#M V@(#    . . . . . . . . . . . .       . . . . . ",
"    + + + + + + + + + + +               + + 6#7#8#9#_#0#a#b#c#m.m.c#b#a#0#d#<#8#7#6#. . . . . . . . . . . . .           . . .   ",
"  + + + + + + + + + + +               + + e#f#g#h#i#j#k#l#m#n#o#o#n#m#l#k#)#!#h#g#f#e#.       . . . . . .               . . .   ",
"  + + + + + + + + + + + + + + +     + + + p#q#r#X s#t#u#v#w#x#y#y#x#w#v#u#t#z#X r#q#p#          . . .                       .   ",
"+ + + + + + + + + + + + + + + + + + + + + A#B#C#D#!#E#F#G#H#I#J#J#K#H#G#F#E#!#D#C#B#A#                                        + ",
"+ + +       + + + + + + + + + + + + + + + L#M#N#O#P#Q#R#S#T#U#V#V#W#T#S#R#Q#P#O#N#M#L#                            + + + + + + + ",
"+ +           + +       + + + + + + +     L#X#Y#Z#`# $.$+$@$#$$$%$&$@$+$.$ $`#Z#Y#X#L#+                                 + + + + ",
"+ +           +             + + + +       *$=$-$;$>$,$'$)$!$~${$:@]$]#)$'$,$^$/$-$=$*$+ +                                     + ",
"                                          *$($_$x#:$<$u.[$}$|$:@F+1$2$[$u.<$3$4$_$($*$+ +                         . .           ",
". . . .                                   *$5$6$7$8$9$!.[$0$a$_@_@b$c$[$!.9$8$7$6$5$*$+ +                       . . . .         ",
". . . . . .                 + + + +       } d$e$w#f$'+u.[$/#g$F+x@h$i$[$u.'+f$w#e$d$} + + + + +             . . . . . . . . . . ",
". . . + + + +     + + + + + + + + + + +     j$k$l$m$n$'$o$]#p$q$r$]#]#o$'$n$s$l$t$u$+ + + + + + + + + + + . . . . . . . . . . . ",
". . + + + + + + + + + + + + + + + + + + + + + v$'$w$x$y$z$A$B$C$'#D$A$z$E$F$G$H$I$+ + + + + + + + + +           . . . . . . . . ",
"+ + +       + + + + + + + + + + + + + + + + + + J$K$L$I$M$N$O$P$n Q$N$M$I$R$S$+ + + + + + + + +                   . . . . . .   ",
"                    + + + + + + + + + + + + + + + + @ @ @ @ @ @                 @ @ @ @ + + +             . . . . . . . . .     ",
"          + + + + + + + + + + + + + + + + + @ @ @ + @ @ @ @ @ @ @ @ @ @ @     @ @ @ @ @ @ @ +         . . . . . . . . . . .     ",
"              + + + + + + + + + + + + + + @ @ @ @ @ @ @ @ @ @ @ @ @ @ @ @ @ @ @ . . . @ @ @ @       . . . . . . . . . . .       ",
"                  + + + + + + + + + + + @ @ @ @ @ . . . . @ @ @ @ . . . . @ @ . . . . . @ @ @ @ . . .           . . . . .       ",
".                         + + + + + + + @ @ @ . . . . . . . @ @ . . . . . . . . . . . . . . . . .                 . . . . .   . ",
". .                       + + + + + @ @ @ @ . . . . . . . . @ . . . . . . . . . . . . . . . . . .                     . . . . . ",
"    .                       . . . . . . @ . . . . . . . . . . . . . . . . . . . . . . . . . . . .   . . .               . . .   ",
"                          . .     . . . . . . . . . . . . . . . . . . . . . . . . . . . . . . . . . . . . .                     "};
