/* XPM */
static char * F_player_xpm[] = {
"64 64 524 2",
"  	c #9BB94E",
". 	c #BFBA5B",
"+ 	c #79A863",
"@ 	c #679175",
"# 	c #161C2E",
"$ 	c #2E2130",
"% 	c #181D2E",
"& 	c #312733",
"* 	c #322833",
"= 	c #272231",
"- 	c #6E363E",
"; 	c #9C4A4C",
"> 	c #6E3B40",
", 	c #916155",
"' 	c #BF7E6A",
") 	c #BE7867",
"! 	c #C1816C",
"~ 	c #A7685C",
"{ 	c #854346",
"] 	c #302432",
"^ 	c #A55B55",
"/ 	c #C17F6B",
"( 	c #C5826D",
"_ 	c #BB685F",
": 	c #C17868",
"< 	c #C4816D",
"[ 	c #C4826D",
"} 	c #C5826E",
"| 	c #AC7262",
"1 	c #6E4946",
"2 	c #181C2E",
"3 	c #171C2E",
"4 	c #69343C",
"5 	c #B55756",
"6 	c #BE7163",
"7 	c #C27A69",
"8 	c #BD7063",
"9 	c #986558",
"0 	c #946357",
"a 	c #C0806B",
"b 	c #6A383E",
"c 	c #322233",
"d 	c #B15353",
"e 	c #B75756",
"f 	c #C5836E",
"g 	c #C3826D",
"h 	c #463137",
"i 	c #BA6C61",
"j 	c #1B1D2F",
"k 	c #783E4E",
"l 	c #B55555",
"m 	c #B65555",
"n 	c #B9645D",
"o 	c #AB7161",
"p 	c #6E4B47",
"q 	c #936256",
"r 	c #BF7F6B",
"s 	c #A3655A",
"t 	c #7D4F50",
"u 	c #A95358",
"v 	c #67333C",
"w 	c #843F45",
"x 	c #864045",
"y 	c #292332",
"z 	c #3B283E",
"A 	c #4D3049",
"B 	c #39273D",
"C 	c #302732",
"D 	c #B05353",
"E 	c #B25354",
"F 	c #6F373E",
"G 	c #2D2030",
"H 	c #38273C",
"I 	c #603851",
"J 	c #A64F57",
"K 	c #B35454",
"L 	c #392434",
"M 	c #5A3651",
"N 	c #683D5A",
"O 	c #693D5B",
"P 	c #5B3652",
"Q 	c #884145",
"R 	c #A54F55",
"S 	c #573248",
"T 	c #AE5253",
"U 	c #D5B583",
"V 	c #1B1D30",
"W 	c #523149",
"X 	c #A75057",
"Y 	c #B45455",
"Z 	c #673952",
"` 	c #663C59",
" .	c #1F1E31",
"..	c #272632",
"+.	c #524444",
"@.	c #202130",
"#.	c #6F3947",
"$.	c #6E3947",
"%.	c #2C2133",
"&.	c #6D3845",
"*.	c #353035",
"=.	c #292832",
"-.	c #D5B584",
";.	c #E0CBAD",
">.	c #BCA179",
",.	c #40293E",
"'.	c #934957",
").	c #974B58",
"!.	c #AE5256",
"~.	c #6D3E5B",
"{.	c #673C5A",
"].	c #3D293F",
"^.	c #71614E",
"/.	c #B89D7E",
"(.	c #AA917A",
"_.	c #574A55",
":.	c #715167",
"<.	c #44424C",
"[.	c #3F414A",
"}.	c #525055",
"|.	c #E4D8C9",
"1.	c #D2CBC3",
"2.	c #868689",
"3.	c #E2CEB3",
"4.	c #F9F7F6",
"5.	c #48474C",
"6.	c #6B3D59",
"7.	c #3D3B41",
"8.	c #B9B7B6",
"9.	c #E7DACA",
"0.	c #F9F8F6",
"a.	c #FAF9F8",
"b.	c #F9F8F7",
"c.	c #F8F7F5",
"d.	c #EDE1D0",
"e.	c #CCBDA9",
"f.	c #4C4847",
"g.	c #3E3939",
"h.	c #DFCBB1",
"i.	c #FDFDFB",
"j.	c #F2EFD8",
"k.	c #3C3C3C",
"l.	c #6D5952",
"m.	c #856D60",
"n.	c #A59572",
"o.	c #D4C798",
"p.	c #F0E2AF",
"q.	c #F0E2B0",
"r.	c #EAD9A8",
"s.	c #E5D1A2",
"t.	c #E5D2A5",
"u.	c #EEE0AE",
"v.	c #EDDFAB",
"w.	c #DEC895",
"x.	c #B79C72",
"y.	c #CDAF7F",
"z.	c #908B72",
"A.	c #FCFBFA",
"B.	c #FEFDFB",
"C.	c #EAE3AF",
"D.	c #3C3C3B",
"E.	c #836B5F",
"F.	c #9C806D",
"G.	c #D4B584",
"H.	c #E8D6A1",
"I.	c #EFE1AB",
"J.	c #F3E8C3",
"K.	c #F7EFD7",
"L.	c #FAF6E9",
"M.	c #FEFEFC",
"N.	c #FAF7EC",
"O.	c #E8D7B7",
"P.	c #DBC18E",
"Q.	c #796751",
"R.	c #D4B586",
"S.	c #EAE1BE",
"T.	c #FDFDFA",
"U.	c #E3D0B4",
"V.	c #E7DFA7",
"W.	c #544645",
"X.	c #967A6A",
"Y.	c #B89A77",
"Z.	c #E2CD99",
"`.	c #EFE2AD",
" +	c #F3EAC7",
".+	c #F6F0DC",
"++	c #C1C1C0",
"@+	c #EBDEBC",
"#+	c #EEDFAA",
"$+	c #C2AD82",
"%+	c #2E2B33",
"&+	c #1A1E2F",
"*+	c #B1A89E",
"=+	c #F6F3DC",
"-+	c #F3ECE1",
";+	c #DCC492",
">+	c #DCCA96",
",+	c #3B3C3B",
"'+	c #6D5A52",
")+	c #977B6B",
"!+	c #BB9D78",
"~+	c #DCC18E",
"{+	c #E4CE9A",
"]+	c #EFE0AA",
"^+	c #F2ECD5",
"/+	c #454445",
"(+	c #BBA076",
"_+	c #E9D7A4",
":+	c #E5D4A2",
"<+	c #383638",
"[+	c #2D2F35",
"}+	c #D8D7C8",
"|+	c #F1EBC5",
"1+	c #D7B989",
"2+	c #DECB96",
"3+	c #7E7057",
"4+	c #1B202F",
"5+	c #6F5F4D",
"6+	c #353135",
"7+	c #715D54",
"8+	c #997D6B",
"9+	c #D2B282",
"0+	c #DBC08E",
"a+	c #FAF7EB",
"b+	c #3F4149",
"c+	c #776651",
"d+	c #DFCAAB",
"e+	c #EEE4BF",
"f+	c #4A4540",
"g+	c #858266",
"h+	c #EBE4AD",
"i+	c #E1CF99",
"j+	c #BA9F75",
"k+	c #2A2932",
"l+	c #776650",
"m+	c #B59A71",
"n+	c #796851",
"o+	c #947969",
"p+	c #D3B382",
"q+	c #D6B684",
"r+	c #DEC491",
"s+	c #EFE1AD",
"t+	c #F7F1DA",
"u+	c #F3EDDA",
"v+	c #3D3E43",
"w+	c #343035",
"x+	c #D0B181",
"y+	c #ECDDBA",
"z+	c #C3B4A0",
"A+	c #322F34",
"B+	c #CEC897",
"C+	c #E7DAA2",
"D+	c #D6B785",
"E+	c #786651",
"F+	c #241F2F",
"G+	c #7B6952",
"H+	c #191E2E",
"I+	c #B79977",
"J+	c #F3EAC6",
"K+	c #F7F6F4",
"L+	c #3D4048",
"M+	c #9D8564",
"N+	c #DFCA99",
"O+	c #AEA482",
"P+	c #E7E0A8",
"Q+	c #C6B284",
"R+	c #B99E73",
"S+	c #9A494B",
"T+	c #66343C",
"U+	c #7E6A53",
"V+	c #8A7162",
"W+	c #B99C78",
"X+	c #C9AA7E",
"Y+	c #BEA176",
"Z+	c #A08865",
"`+	c #9D8664",
" @	c #A79773",
".@	c #B0A680",
"+@	c #B6B1A1",
"@@	c #8F9092",
"#@	c #191E30",
"$@	c #2D2E35",
"%@	c #B0AB82",
"&@	c #A08866",
"*@	c #2F2130",
"=@	c #B35354",
"-@	c #B45454",
";@	c #9F4B4D",
">@	c #966E59",
",@	c #AB906E",
"'@	c #997F67",
")@	c #5B4C47",
"!@	c #2E2B34",
"~@	c #B49775",
"{@	c #D4B482",
"]@	c #D4B483",
"^@	c #C8B78A",
"/@	c #867F65",
"(@	c #3A393A",
"_@	c #191E2F",
":@	c #403C3B",
"<@	c #AAA17F",
"[@	c #7F6D5D",
"}@	c #CFB080",
"|@	c #AE5F5A",
"1@	c #B0866D",
"2@	c #C3A47B",
"3@	c #CEAF7F",
"4@	c #B89D73",
"5@	c #9B8564",
"6@	c #524941",
"7@	c #A18B68",
"8@	c #D9BF8D",
"9@	c #E6D4A0",
"0@	c #E8DAA6",
"a@	c #B3A982",
"b@	c #B1A784",
"c@	c #B4AFA2",
"d@	c #3E4049",
"e@	c #3D3738",
"f@	c #D0B385",
"g@	c #EFE4BE",
"h@	c #C8BC8D",
"i@	c #C5B98F",
"j@	c #7D6B54",
"k@	c #D1B281",
"l@	c #B85D58",
"m@	c #D1AF80",
"n@	c #A38A67",
"o@	c #4E443E",
"p@	c #878164",
"q@	c #A89B75",
"r@	c #DDD19C",
"s@	c #E3DCA4",
"t@	c #3A3A3A",
"u@	c #E3CD99",
"v@	c #F3E9C4",
"w@	c #FEFDF9",
"x@	c #B9B9BB",
"y@	c #E7D6B7",
"z@	c #262230",
"A@	c #8E5F54",
"B@	c #6F4A46",
"C@	c #D3BC8A",
"D@	c #675B4F",
"E@	c #BA9E74",
"F@	c #B65656",
"G@	c #BD6D61",
"H@	c #BC6A5F",
"I@	c #4A4640",
"J@	c #CFB282",
"K@	c #D7B886",
"L@	c #EEDFA9",
"M@	c #F1E4B6",
"N@	c #BBBBBA",
"O@	c #D1B486",
"P@	c #F5EDD4",
"Q@	c #EAD9A7",
"R@	c #67373D",
"S@	c #B76B5F",
"T@	c #382B34",
"U@	c #B99D73",
"V@	c #5B4D47",
"W@	c #D0B180",
"X@	c #BA625C",
"Y@	c #C37F6B",
"Z@	c #EAE0A8",
"`@	c #E6D9A1",
" #	c #D8C692",
".#	c #BAB5A7",
"+#	c #7F7160",
"@#	c #E1CB98",
"##	c #4E4440",
"$#	c #BA7465",
"%#	c #6E3A3F",
"&#	c #63343C",
"*#	c #7A6751",
"=#	c #413A39",
"-#	c #A88E6C",
";#	c #2F2231",
">#	c #B35755",
",#	c #DABD91",
"'#	c #E2D09A",
")#	c #DCC490",
"!#	c #4A413D",
"~#	c #9A8362",
"{#	c #F8F4E7",
"]#	c #FBF9F5",
"^#	c #EFE1AE",
"/#	c #EDDFA9",
"(#	c #A89975",
"_#	c #302532",
":#	c #BC7666",
"<#	c #BA6C60",
"[#	c #74634F",
"}#	c #554745",
"|#	c #363135",
"1#	c #C99E76",
"2#	c #BF7964",
"3#	c #B75856",
"4#	c #BA635C",
"5#	c #D1A881",
"6#	c #E1CE98",
"7#	c #EAE0A7",
"8#	c #7A6558",
"9#	c #CDAE7E",
"0#	c #3E3838",
"a#	c #DDC895",
"b#	c #F7F0D9",
"c#	c #E9D7A2",
"d#	c #BAA076",
"e#	c #4B3843",
"f#	c #69363D",
"g#	c #B25454",
"h#	c #292032",
"i#	c #3C2A3E",
"j#	c #2A2032",
"k#	c #281F30",
"l#	c #D4B286",
"m#	c #CA9779",
"n#	c #CA9975",
"o#	c #8E7564",
"p#	c #1A1D2F",
"q#	c #423F3D",
"r#	c #B0A57F",
"s#	c #DEC997",
"t#	c #EDE0AD",
"u#	c #EDE0AC",
"v#	c #CEC294",
"w#	c #4D3C45",
"x#	c #683C59",
"y#	c #4E3049",
"z#	c #1C1E30",
"A#	c #3D2A35",
"B#	c #A34E55",
"C#	c #7E4258",
"D#	c #221F32",
"E#	c #7E4256",
"F#	c #7F3D43",
"G#	c #D5B684",
"H#	c #E6D8A1",
"I#	c #EBE2A9",
"J#	c #D1AA83",
"K#	c #CDA279",
"L#	c #9C806C",
"M#	c #4E2F47",
"N#	c #553249",
"O#	c #3C283E",
"P#	c #312F37",
"Q#	c #613851",
"R#	c #914858",
"S#	c #41293F",
"T#	c #927768",
"U#	c #745F55",
"V#	c #3E2F37",
"W#	c #513048",
"X#	c #231F32",
"Y#	c #241E2F",
"Z#	c #E7DBA3",
"`#	c #D7B78D",
" $	c #C07B65",
".$	c #CDA379",
"+$	c #D1B080",
"@$	c #7C6759",
"#$	c #B25455",
"$$	c #854559",
"%$	c #693C59",
"&$	c #5B3651",
"*$	c #934958",
"=$	c #814357",
"-$	c #6F5B53",
";$	c #AB8E72",
">$	c #393337",
",$	c #4C2F48",
"'$	c #633A57",
")$	c #D1A982",
"!$	c #BB665E",
"~$	c #BD6E62",
"{$	c #BB7662",
"]$	c #44383A",
"^$	c #C0A379",
"/$	c #844459",
"($	c #4F3049",
"_$	c #5E3752",
":$	c #A14D56",
"<$	c #C2A47A",
"[$	c #1E1E31",
"}$	c #BB675E",
"|$	c #382A34",
"1$	c #A3876E",
"2$	c #2F2C34",
"3$	c #703947",
"4$	c #B35455",
"5$	c #964A58",
"6$	c #A54F57",
"7$	c #A24E56",
"8$	c #482B3E",
"9$	c #856E5F",
"0$	c #B79A76",
"a$	c #D4B282",
"b$	c #B85F59",
"c$	c #5F4A48",
"d$	c #80695D",
"e$	c #232231",
"f$	c #593550",
"g$	c #6E3E59",
"h$	c #954957",
"i$	c #8C444E",
"j$	c #472B3D",
"k$	c #4A2E47",
"l$	c #262333",
"m$	c #282732",
"n$	c #C68E6E",
"o$	c #6F3C41",
"p$	c #7D665B",
"q$	c #C68F6F",
"r$	c #6B373E",
"s$	c #4C4041",
"t$	c #262532",
"u$	c #A46D5A",
"v$	c #272532",
"w$	c #231E2F",
"x$	c #212230",
"y$	c #524544",
"                          .         . . . . . . . .       . . . . .     . . . .     . . . . . . . . . . . .       . .           ",
"+ +                                         . . .           . .             .         . . . . . . . . . . .     . . . . .       ",
"                                              . .           .                         . . . . . . . . . . . . . . . . . . . . . ",
"                                                            .                         . . . . .       . . . . . . . . .         ",
"        +                                                                                                                     + ",
"      + + +   + + + +             . . .                                                                                   + + + ",
"+ + + + + + + + + + + +       . . . . . .                     + + +                                                   + + + + + ",
"+ + + + + + + + + + + + . . . . . . . . . . . . . + + +     + + + + +                                               + + + + + + ",
"      + + + + + + + + + + + + . . . . . . . . . + + + + + + +     + + +             + + +                       + + + + + +     ",
"        + + +       + + + + + + + . . . + + + + +     + + +         + + +         + + + + +       + +       + + + + + + +       ",
"        + +                                                                     + + + + + + + + + + + +                         ",
"                                                  + +           + + + +         + + + + + + + + + + + + + + +                   ",
"                    @ @ @ @ @ @       @ @ @   + + + + +   + + + + + + + +     + + + +       + + + + +                           ",
"    # # #       . . . . @ @ @ @ @   @ @ @ @ @ + + + + + + + + + + + + + + + + + + +                                   @ @ @ @ @ ",
"# # # # # #   . . . . . . . @ @ @ @ @ @ . . @ @ + + + + + + + + + + + + + + + + + +                                 @ @ @ @ @ @ ",
"# . . . . # . . . . . . . . . @ @ @ @ $ % & * * * = # + + +     + +       + + + +                               @ @ @ . . . . @ ",
". . . . . . . . . . . . . . . . @ - ; > , ' ) ! ! ~ { ] # +                 + + + + + + + + + +           @ @ @ @ . . . . . . . ",
". . . . . . . . . . + + + . . . # $ ^ / ( _ : < [ } < | 1 2                 + + + + + + + + + + + + + . @ @ . . . . . . . . . . ",
". . . . . . . . . + + + + + . . 3 4 5 6 } [ 7 6 8 9 0 a ) b 2 .             + + + + + . . . . . . . . . . . . . . . . . . + + + ",
"+ + . . + + + + + + + + + + + 3 c d e < f g ! ! g a , h | i 4 2           + + . . . . . . . . . . . .             . . + + + + + ",
"+ + + + + + + + + + + + + + + j k l m n o p & & p q r s t u d v                                                               + ",
"      + + + + + + + + + + + + # w l m x y z A B # % C b D E F ; G                                                               ",
"              + + + + + + + + H I J K L M N O P j # # 3 Q R S T $                                   . U U .                     ",
"      + + + + + + +       + + V W X Y Z N O O `  ...+.@.#.$.%.&.*.=.#                             . -.;.>.. .                   ",
"+ + + + + + + + +           + # ,.'.).!.~.O {.].^./.(._.:.<.[.}.|.1.2.#                   . . . . U 3.4.5.. . . . .         + + ",
"                            + + 3 ].` 6.P A z @.7.8.9.0.a.b.b.c.d.e.f.=.#                     . g.h.i.j.k.  . . . . .           ",
"                                  3  . .V # # l.m.n.o.p.q.r.s.t.u.v.w.x.=.                    y.z.A.B.C.D.    . . . . .         ",
"                                        . # @.E.F.G.H.I.J.K.L.B.M.N.O.P.Q.                    R.S.T.U.V.D.                      ",
"                                      + + # W.X.Y.U Z.I.`.q.q. +.+++@+#+$+%+. . . . + + +   &+*+=+-+;+>+,+                      ",
"                              #     + + + # '+)+!+U ~+{+]+I.I.p.^+/+(+_+:+<++ + + + + + + + [+}+|+1+2+3+4+                      ",
"                            # 5+6++ + + + @.7+8+9+U U 0+H.#+`.a+a.b+c+d+e+f+&++ + + + + + # g+h+i+U j+k++ + + + + + +           ",
"+ +                         # l+m+n+&+  # ..o+F.p+U U U q+r+s+t+u+v+w+x+y+z+A++ + + + + + [+B+C+D+p+E+# + + +                   ",
"                            2 F+G+y.G+H+# ..o+I+U U U U U Z.I.J+K+L+% M+N+O+# + + + + + # g+P+Q+U R+=.                          ",
"          @ @ @ @ @         $ S+T+U+y.G+=.@.'+V+W+X+Y+Z+`+ @.@+@@@#@# =.<+$@#       + + [+B+%@&@p+E+#                           ",
"      @ @ @ @ @ @ @ @     @ *@=@-@;@>@,@'@)@!@l.~@{@]@^@/@(@_@# # # # % :@<@$@        # g+V.[@}@R+=.                            ",
"    @ @ @ . . . @ @ @ @ @ @ *@=@m m |@1@2@3@4@5@6@7@&@8@9@0@a@b@c@d@# e@f@g@/@#       =.h@i@j@k@E+# .                           ",
"@ @ @ @ . . . . . . @ @ @ @ *@=@m e l@m@n@o@p@q@r@s@t@Z+q+u@I.v@w@x@% `+y@J..@z@A@B@2 Q.C@D@E@R+=.. .           @ @ @ @ @     @ ",
"@ @ @ @ . . . . . . . . @ . *@=@F@G@H@U D+k@R+E+I@J@6+`+U K@L@I.M@N@w+O@P@Q@n.R@~ S@T@U@`+V@W@E+# .           @ @ @ @ @ @ @ @ @ ",
". . @ @ @ . . . . . . . . . *@=@m X@Y@Z@`@D+U }@I@ #6+`+U U u@I.J..#+#@#I.0@##$#%#&#*#y.=#m.-#=.      @ @   @ @ @ . . @ @ @ @ @ ",
". . . . @ . . . . . . . . . ;#>#m F@: ,#'#)#U k@!#3@6+~#k@U Z.I.`.{#]#^#/#(#_#:#<#4 [#l+}#o+W.#     @ @ @ @ @ @ . . . . @ @ @ . ",
". . . . . . . . . . . . . . |#1#2#3#4#5#6#7#D+p+8#9#6+=.0#`+a#I.`.b#J+c#d#e#H f#g#=@w h#+.l.i#j#k#  @ @ . . @ @ . . . . . . . . ",
". . . . . . . . + + + + . . |#k@{@l#m#n#q+D+U p+o#3@6+p## % q#r#s#t#u#v#w#x#y#z#A#x B#C#A D#z E#F#@ @ . . . . . . . . . . . . . ",
"        . . . + + + + + +   6+}@G#H#I#J#K#{@U p+L#}@6+M#N#O# .% w+/@/@P#Q#R#S#W.T#U#V#W#` M D#X#Y#. . . . . . .       . . . . . ",
"    + + + + + + + + + + +   % Z+U )#Z#`#6  $.$+$@$}@6+w #$$$%$A D##  .&$*$=$ .-$;$9+x.>$X#,$'$B # . . . . . .           . . .   ",
"  + + + + + + + + + + +     # E+p+q+)#)$< !$~${$]$^$6+x m l J /$%$($_$/$:$S## '+Y.U U <$!@# [$# . . . . .               . . .   ",
"  + + + + + + + + + + + + + + =.x.U U K#}$X@F@=@|$1$2$3$4$m m l J 5$6$7$8$3 # ..9$0$W@x.=.      . . .                       .   ",
"+ + + + + + + + + + + + + + + + 6+x.U a$b$m m d c$d$e$f$g$'.h$h$h$h$i$j$3 # j k$l$m$w+=.#                                     + ",
"+ + +       + + + + + + + + + + + 6+x.U n$m K o$p$..#  . . . . . . .j # #   V M k$# #                             + + + + + + + ",
"+ +           + +       + + + + + + 6+x.q$K r$s$t$# # # # # # # # # # #     # V V + + +                                 + + + + ",
"+ +           +             + + + +   6+u$r$p$v$# # # # # # #   # # #           + + + + +                                     + ",
"                                        w$x$y$% # #     # #   # # # # +       + + + + + +                         . .           ",
". . . .                                   # #                   + + + + + + + + + + + + +                       . . . .         ",
". . . . . .                 + + + +                           + + + + + + + + + + + + + + + + +             . . . . . . . . . . ",
". . . + + + +     + + + + + + + + + + +     + + + +         + + + + + + + + + + + + + + + + + + + + + + + . . . . . . . . . . . ",
". . + + + + + + + + + + + + + + + + + + + + + + + + + + + + + + + + + + + + + + + + + + + + + + + + +           . . . . . . . . ",
"+ + +       + + + + + + + + + + + + + + + + + + + + + @ @ @ @ + + + + + + + + + + + + + + + + +                   . . . . . .   ",
"                    + + + + + + + + + + + + + + + + @ @ @ @ @ @                 @ @ @ @ + + +             . . . . . . . . .     ",
"          + + + + + + + + + + + + + + + + + @ @ @ + @ @ @ @ @ @ @ @ @ @ @     @ @ @ @ @ @ @ +         . . . . . . . . . . .     ",
"              + + + + + + + + + + + + + + @ @ @ @ @ @ @ @ @ @ @ @ @ @ @ @ @ @ @ . . . @ @ @ @       . . . . . . . . . . .       ",
"                  + + + + + + + + + + + @ @ @ @ @ . . . . @ @ @ @ . . . . @ @ . . . . . @ @ @ @ . . .           . . . . .       ",
".                         + + + + + + + @ @ @ . . . . . . . @ @ . . . . . . . . . . . . . . . . .                 . . . . .   . ",
". .                       + + + + + @ @ @ @ . . . . . . . . @ . . . . . . . . . . . . . . . . . .                     . . . . . ",
"    .                       . . . . . . @ . . . . . . . . . . . . . . . . . . . . . . . . . . . .   . . .               . . .   ",
"                          . .     . . . . . . . . . . . . . . . . . . . . . . . . . . . . . . . . . . . . .                     "};
